X:511
T:When a Man's a Little Bit Poorly. RH.511
T:Bab At The Bowster,aka. RH.511
T:Country Bumpkin,aka. RH.511
R:air
S:Rev.R.Harrison's MS,c1815,Cumbria
N:in a different hand - Country Bumpkin, Bab At The Bowster, aka
O:England
A:Temple Sowerby,Cumbria
Z:vmp.Simon Wilson. Review PJH, 2008.
M:6/8
L:1/8
Q:3/8=100
K:G
c2c B2B|ABG FED|(G2B) .B2z|(G2B) .B2z|!
c2c B>BB|(A2G) FED|g>gd e>dc|B2A G2z||!
B2d ded|(BAG) d2A|B2G d2c|(BAG) d2z|!
(gd).d ddc|(BAG) d2d|(dA).G B2G|FGE D2z|!
c2c B2B|(ABG) (FED)|(G2B) .B2z|G2B B2z|!
c2c BBB|A2G (FED)|g2d/d/ (edc)|(Bc).A G2z|]

